X: 1
T: Holy God, We Praise Thy Name
C: Words: attr. Ignaz Franz, 1774; Translated by Clarence A Walworth, 1858.
C: Music: 'Te Deum' or 'Hursley' from Katholisches Gesangbuch, Maria Theresa, 1774. 
C: Setting: PD from Lutheran Worship, 1982.
C: copyright: public domain.  This score is a part of the Open Hymnal Project, 2005 Revision.
S: Music source: 'Lutheran Worship' Hymnal, 1982 Hymn 171.
M: 3/4 % time signature
L: 1/4 % default length
%%staves (S1V1 S1V2) | (S2V1 S2V2) 
V: S1V1 clef=treble 
V: S1V2 
V: S2V1 clef=bass 
V: S2V2 
K: F % key signature
%
%%MIDI program 1 0 % Piano 1
%%MIDI program 2 0 % Piano 1
%%MIDI program 3 0 % Piano 1
%%MIDI program 4 0 % Piano 1
%
% 1
[V: S1V1] [Q:1/4=120] [C2F2] [CF] | (F E) [CF] | ('([GD] [AC])) [CG] | [A,3F3] | [F2A2] [FA] | ('([AF] [GE])) [FA] |
w: 1.~Ho- ly God, * we praise * Thy Name; Lord of all, * we 
w: 2.~Hark! the loud * ce- les- * tial hymn An- gel cho- irs a- 
w: 3.~Lo! the a- * post- o- * lic train Join the sa- * cred 
w: 4.~Ho- ly Fa- * ther, Ho- * ly Son, Ho- ly Spi- * rit, 
[V: S1V2]  x3 | C2 x | x3 | x3 | x3 | x3 |
[V: S2V1]  x3 | x3 | F,2 x | x3 | x3 | C2 x |
[V: S2V2]  [F,2A,2] [F,A,] | (,([A,F,] [G,C,])) [A,,F,] | (B,, C,) [C,E,] | [F,,3F,3] | [F,2C2] [F,C] | (F, C,) [F,C] |
% 7
[V: S1V1]  (c B) [FA] | [FA] [E2G2] | [C2F2] [CF] | (F E) [CF] | ('([GD] [AC])) [CG] | [A,3F3] |
w: bow * be- fore Thee! All on earth * Thy scep- * ter claim,
w: bove * are rai- sing, Cher- u- bim * and ser- * a- phim, 
w: Name * to hal- low; Pro- phets swell * the loud * re- frain,
w: Three * we name Thee; While in es- * sence on- * ly One, 
[V: S1V2]  G2 x | x3 | x3 | C2 x | x3 | x3 |
[V: S2V1]  x3 | C x2 | x3 | x3 | F,2 x | x3 |
[V: S2V2]  [E,2C2] [F,C] | C [C,2C2] | [F,2A,2] [F,A,] | (,([A,F,] [G,C,])) [A,,F,] | (B,, C,) [C,E,] | [F,,3F,3] |
% 13
[V: S1V1]  [F2A2] [FA] | .('([AF] [GE])) [FA] | (c B) [FA] | [FA] [E2G2] | [E2G2] A/2c/2 | .(B A) [EG] |
w: All in Hea- ven a- bove * a- dore Thee; In- fin- * ite_ Thy 
w: In un- ceas- * ing cho- * rus prais- ing; Fill the * hea- vens with 
w: And the white_ robed mar- * tyrs fol- low; And from * morn_ to 
w: Un- div- id- * ed God * we claim Thee; And a- * dor- * ing 
[V: S1V2]  x3 | x3 | G2 x | x3 | x2 F | D2 x |
[V: S2V1]  x3 | C2 x | x3 | C x2 | x3 | x3 |
[V: S2V2]  [F,2C2] [F,C] | .(F, C,) [F,C] | [E,2C2] [F,C] | C [C,2C2] | [C,2C2] [A,,C] | [G,,2B,2] [C,C] |
% 17
[V: S1V1]  [F2A2] B/2d/2 | [E3c3] | [F2d2] [Fd] | (c B) [FA] | ('([BD] [AC])) [CG] | [A,3F3] |]
w: vast do- * main, Ev- er- last- * ing is * Thy reign. 
w: sweet ac- * cord: Ho- ly, ho- * ly, ho- * ly, Lord. 
w: set of * sun, Through the Church * the song * goes on. 
w: bend the * knee, While we own * the my- * ster- y. 
[V: S1V2]  x2 F | x3 | x3 | E2 x | x3 | x3 |]
[V: S2V1]  C2 x | x3 | x3 | x3 | F,2 x | F,3 |]
[V: S2V2]  (F, E,) [D,B,] | [C,3G,3] | [B,,2B,2] [B,,B,] | [C,2G,2] [D,F,] | (B,, C,) [C,E,] | F,3 |]
% 24
